Yosa-Max/apps/scalable/file-manager-green.svg

<?xml version="1.0" encoding="UTF-8"?>
<svg id="svg5453" version="1.1" viewBox="0 0 64 64" xmlns="http://www.w3.org/2000/svg" xmlns:xlink="http://www.w3.org/1999/xlink">
 <defs id="defs5455">
  <linearGradient id="linearGradient866" x1="13.211061" x2="13.211061" y1="18.742458" y2="9.4583139" gradientUnits="userSpaceOnUse">
   <stop id="stop860" style="stop-color:#fdf124" offset="0"/>
   <stop id="stop862" style="stop-color:#fdf446;stop-opacity:.99607843" offset="1"/>
  </linearGradient>
  <linearGradient id="linearGradient890" x1="416.77542" x2="416.77542" y1="545.77496" y2="501.51627" gradientTransform="translate(-384.57143,-483.798)" gradientUnits="userSpaceOnUse">
   <stop id="stop884" style="stop-color:#83d85e" offset="0"/>
   <stop id="stop886" style="stop-color:#9ce17d" offset="1"/>
  </linearGradient>
 </defs>
 <path id="folderTab-3" d="m4 3.33141c-0.55122 0.0625-1 0.50604-1 1.13462v47.65384h58v-43.11538c0-1.13462-1-1.13462-1-1.13462h-27c-2-4.53846-6-4.53846-6-4.53846h-22z" style="fill-rule:evenodd;fill:#69ad4c"/>
 <path id="folderPaper-6" d="m7 11.27372h50v36.3077h-50z" style="color-rendering:auto;color:#000000;fill:#ffffff;image-rendering:auto;isolation:auto;mix-blend-mode:normal;shape-rendering:auto;solid-color:#000000;text-decoration-color:#000000;text-decoration-line:none;text-decoration-style:solid;white-space:normal"/>
 <polygon id="polygon19" transform="matrix(1.6625589,0,0,1.6422598,-5.3984279,-12.913187)" points="37.746 38.166 7.008 38.154 7.008 18.824 11.711 9.333 37.934 22.329" style="fill:url(#linearGradient866)"/>
 <path id="folderFront-2" d="m39 13.54295s-4 0-6 4.53846h-31s-0.13198 0.0192-0.28906 0.0665c-0.046 0.0159-0.0919 0.0258-0.13477 0.0487-0.27423 0.12463-0.57617 0.38942-0.57617 1.01939v41.98077c0 0.62854 0.44603 1.13461 1 1.13461h60c0.55397 0 1-0.50607 1-1.13461v-46.51923c0-0.62855-0.44603-1.13462-1-1.13462h-1z" style="fill-rule:evenodd;fill:url(#linearGradient890)"/>
 <path id="path938" d="m32.002743 24.624406 14.065054 11.921909-1.818924 2.145888-12.248873-10.383244-12.248873 10.383244-1.818924-2.145888 5.627119-4.769869v-7.15204h2.813559v4.767112l5.624376-4.767112h0.0056zm11.251494 9.847458v18.288136h-22.508474v-18.288136h2.813559v15.474576h5.627119v-9.847457h5.627118v9.847457h5.627119v-15.474576z" style="color-rendering:auto;color:#000000;fill:#ffffff;image-rendering:auto;isolation:auto;mix-blend-mode:normal;shape-rendering:auto;solid-color:#000000;text-decoration-color:#000000;text-decoration-line:none;text-decoration-style:solid;white-space:normal"/>
</svg>

<?xml version="1.0" encoding="UTF-8" standalone="no"?>
<svg
   xmlns:dc="http://purl.org/dc/elements/1.1/"
   xmlns:cc="http://creativecommons.org/ns#"
   xmlns:rdf="http://www.w3.org/1999/02/22-rdf-syntax-ns#"
   xmlns:svg="http://www.w3.org/2000/svg"
   xmlns="http://www.w3.org/2000/svg"
   xmlns:xlink="http://www.w3.org/1999/xlink"
   viewBox="0 0 64 64"
   version="1.1"
   id="svg5453"
   height="64"
   width="64">
  <defs
     id="defs5455">
    <linearGradient
       id="linearGradient888">
      <stop
         id="stop884"
         offset="0"
         style="stop-color:#83d85e;stop-opacity:1" />
      <stop
         id="stop886"
         offset="1"
         style="stop-color:#9ce17d;stop-opacity:1" />
    </linearGradient>
    <linearGradient
       id="linearGradient864">
      <stop
         id="stop860"
         offset="0"
         style="stop-color:#fdf124;stop-opacity:1" />
      <stop
         id="stop862"
         offset="1"
         style="stop-color:#fdf446;stop-opacity:0.99607843" />
    </linearGradient>
    <linearGradient
       gradientUnits="userSpaceOnUse"
       y2="9.4583139"
       x2="13.211061"
       y1="18.742458"
       x1="13.211061"
       id="linearGradient866"
       xlink:href="#linearGradient864" />
    <linearGradient
       gradientUnits="userSpaceOnUse"
       y2="501.51627"
       x2="416.77542"
       y1="545.77496"
       x1="416.77542"
       id="linearGradient890"
       xlink:href="#linearGradient888"
       gradientTransform="translate(-384.57143,-483.798)" />
  </defs>
  <metadata
     id="metadata5458">
    <rdf:RDF>
      <cc:Work
         rdf:about="">
        <dc:format>image/svg+xml</dc:format>
        <dc:type
           rdf:resource="http://purl.org/dc/dcmitype/StillImage" />
        <dc:title></dc:title>
      </cc:Work>
    </rdf:RDF>
  </metadata>
  <path
     style="fill:#69ad4c;fill-opacity:1;fill-rule:evenodd;stroke:none;stroke-width:1.06518328px;stroke-linecap:butt;stroke-linejoin:miter;stroke-opacity:1"
     d="M 4,3.33141 C 3.44878,3.39391 3,3.83745 3,4.46603 V 6.73526 52.11987 H 61 V 12.40834 11.27372 9.00449 C 61,7.86987 60,7.86987 60,7.86987 H 58 37 33 C 31,3.33141 27,3.33141 27,3.33141 H 5 Z"
     id="folderTab-3" />
  <path
     style="color:#000000;text-decoration:none;text-decoration-line:none;text-decoration-style:solid;text-decoration-color:#000000;white-space:normal;clip-rule:nonzero;display:inline;overflow:visible;visibility:visible;opacity:1;isolation:auto;mix-blend-mode:normal;color-interpolation:sRGB;color-interpolation-filters:linearRGB;solid-color:#000000;solid-opacity:1;fill:#ffffff;fill-opacity:1;fill-rule:nonzero;stroke:none;stroke-width:1.06518328;stroke-linecap:butt;stroke-linejoin:miter;stroke-miterlimit:4;stroke-dasharray:none;stroke-dashoffset:0;stroke-opacity:1;color-rendering:auto;image-rendering:auto;shape-rendering:auto;text-rendering:auto;enable-background:accumulate"
     d="m 7,11.27372 h 50 v 36.3077 H 7 Z"
     id="folderPaper-6" />
  <polygon
     points="37.746,38.166 7.008,38.154 7.008,18.824 11.711,9.333 37.934,22.329 "
     id="polygon19"
     style="fill:url(#linearGradient866);fill-opacity:1"
     transform="matrix(1.6625589,0,0,1.6422598,-5.3984279,-12.913187)" />
  <path
     style="fill:url(#linearGradient890);fill-opacity:1;fill-rule:evenodd;stroke:none;stroke-width:1.06518328px;stroke-linecap:butt;stroke-linejoin:miter;stroke-opacity:1"
     d="m 39,13.54295 c 0,0 -4,0 -6,4.53846 H 29 4 2 c 0,0 -0.13198,0.0192 -0.28906,0.0665 -0.046,0.0159 -0.0919,0.0258 -0.13477,0.0487 C 1.30194,18.32124 1,18.58603 1,19.216 v 2.26923 1.13461 38.57693 c 0,0.62854 0.44603,1.13461 1,1.13461 h 60 c 0.55397,0 1,-0.50607 1,-1.13461 v -44.25 -2.26923 c 0,-0.62855 -0.44603,-1.13462 -1,-1.13462 h -1 z"
     id="folderFront-2" />
  <path
     style="opacity:0.25;fill:#000000;fill-opacity:1;stroke:none;stroke-width:1.06518328"
     d="m 1,61.1968 c 0,0.62854 0.44603,1.13462 1,1.13462 h 60 c 0.55397,0 1,-0.50608 1,-1.13462 z"
     id="folderShadow-9" />
  <path
     style="color:#000000;text-decoration:none;text-decoration-line:none;text-decoration-style:solid;text-decoration-color:#000000;white-space:normal;clip-rule:nonzero;display:inline;overflow:visible;visibility:visible;opacity:1;isolation:auto;mix-blend-mode:normal;color-interpolation:sRGB;color-interpolation-filters:linearRGB;solid-color:#000000;solid-opacity:1;fill:#ffffff;fill-opacity:1;fill-rule:nonzero;stroke:none;stroke-width:1.40677965;stroke-linecap:butt;stroke-linejoin:miter;stroke-miterlimit:4;stroke-dasharray:none;stroke-dashoffset:0;stroke-opacity:1;color-rendering:auto;image-rendering:auto;shape-rendering:auto;text-rendering:auto;enable-background:accumulate"
     d="M 32.002743,24.624406 46.067797,36.546315 44.248873,38.692203 32,28.308959 19.751127,38.692203 17.932203,36.546315 23.559322,31.776446 v -7.15204 h 2.813559 v 4.767112 l 5.624376,-4.767112 h 0.0028 0.0028 z m 11.251494,9.847458 V 49.94644 52.76 H 34.813559 29.186441 20.745763 V 49.94644 34.471864 h 2.813559 V 49.94644 h 5.627119 v -9.847457 h 5.627118 v 9.847457 h 5.627119 V 34.471864 Z"
     id="path938" />
</svg>
